X:1
T:Occurrunt turbae - Bernabei
T:#
%%score [ 1 2 3 4 ]
L:1/8
Q:1/4=100
M:4/4
K:C
V:1 treble nm="Soprano" snm="S"
V:2 treble nm="Alto" snm="A"
V:3 treble-8 nm="Tenor" snm="T"
V:4 bass nm="Bass" snm="B"
V:1
"^Giuseppe Antonio Bernabei\n(1649-1732)""^Occurrunt turbae""^Antiphon for Palm Sunday" A4 A2 A2 | %1
w: Oc- cur- runt|
 _B4 A4 | z2 A2 B3 B | B2 c2 A4 | G2 G2 d4 | G2 G2 E2 (A2- |[M:4/4] A2 ^G2 A4) | A4 A3 A | %8
w: tur- bae|cum flo- ri-|bus et pal-|mis, et pal-|mis Re- dem- pto\-||ri ob- vi-|
 A4 A2 A2 | A2 A2 F2 G2 | A2 c2 c2 A2 | d4 c2 A2- | A2 A2 A4 | z2 A2 A3 A | A4 B3 B | A2 B4 B2 | %16
w: am: et vic-|to- ri tri- um-|phan- ti, tri- um-|phan- ti di\-|* gna dant|ob- se- qui-|a: Fi- li-|um De- i|
 A2 B2 c4 | A2 c4 B2 | c2 G2 E2 A2- | A2 ^G2 (A3 B | c2) B2 z4 | z4 A4- | A2 A2 c4 | %23
w: o- re gen-|tes prae- di-|cant, et in lau\-|* dem Chri\- *|* sti|vo\-|* ces to-|
"^rall."[Q:1/4=98] d2[Q:1/4=96] e2[Q:1/4=93] A3[Q:1/4=91] A |[Q:1/4=87] A6[Q:1/4=85] z2 || %25
w: nant per nu- bi-|la:|
[M:3/4][Q:1/4=120] A2 A2 c2 | c4 c2 |[M:3/4][Q:1/4=120][Q:1/4=120][Q:1/4=120][Q:1/4=120] c2 c2 A2 | %28
w: Ho- san- na|in ex-|cel- sis, in|
 B2 ^G4 | A2 c2 e2 | c4 A2 | A2 c2 A2 | d2 d4 | d2 A4 | A2 ^c2 A2 | A4 A2 | A2 A2 d2 | _B2 B2 A2 | %38
w: ex- cel-|sis, in ex-|cel- sis,|ho- san- na|in ex-|cel- sis,|ho- san- na|in ex-|cel- sis, ho-|san- na in|
 A2 A4 | A2"^rall."[Q:1/4=118] A2[Q:1/4=115] ^c2 |[Q:1/4=113] d2[Q:1/4=110] d2[Q:1/4=108] _B2 | %41
w: ex- cel-|sis, in ex-|cel- sis, in|
[Q:1/4=105] A2[Q:1/4=102] A4 |[Q:1/4=100] !fermata!A6 |] %43
w: ex- cel-|sis.|
V:2
 F4 E2 ^F2 | G4 ^F4 | z2 ^F2 G3 G | G2 E2 F4 | D2 E2 F4 | E4 C2 E2 |[M:4/4] E6 E2 | (D2 E2 F3) F | %8
w: Oc- cur- runt|tur- bae|cum flo- ri-|bus et pal-|mis, et pal-|mis Re- dem-|pto- ri|ob\- * * vi-|
 E4 E2 E2 | F2 ^C2 D2 E2 | F2 G2 A2 A2 | F4 F4 | F4 E4 | A,2 F2 E3 E | ^F4 G3 G | ^F4 G2 G2 | %16
w: am: et vic-|to- ri tri- um-|phan- ti, tri- um-|phan- ti|di- gna|dant ob- se- qui-|a: Fí- li-|um De- i|
 C2 B,2 A,2 E2 | (D2 E2 F3) F | E2 E2 C2 E2- | E2 E4 D2 | E2 E4 E2 | F4 E4- | E4 z2 A2 | %23
w: o- re gen- tes|prae\- * * di-|cant, et in lau\-|* dem Chri-|sti vo- ces|to- nant|* per|
 (F2 E2 D3) D | ^C6 z2 ||[M:3/4] E2 F2 G2 | A2 A4 |[M:3/4] G2 G2 F2 | F2 E4 | E6 | E2 F2 E2 | %31
w: nu\- * * bi-|la:|Ho- san- na|in ex-|cel- sis, in|ex- cel-|sis,|in ex- cel-|
 F2 F2 F2 | A6 | F4 F2 | E2 E2 F2 | E2 E4 | ^F2 F2 A2 | G2 G2 F2 | F2 E4 | D2 D2 A2 | F2 A2 G2 | %41
w: sis, in ex-|cel-|sis, ho-|san- na in|ex- cel-|sis, in ex-|cel- sis, in|ex- cel-|sis, in ex-|cel- sis, in|
 F2 E4 | !fermata!D6 |] %43
w: ex- cel-|sis.|
V:3
 d4 ^c2 d2 | d4 d2 A2 | d3 d d4 | G2 (c4 BA) | B2 c4 B2 | c4 G2 c2 |[M:4/4][K:treble-8] B4 c4 | %7
w: Oc- cur- runt|tur- bae cum|flo- ri- bus|et pal\- * *|mis, et pal-|mis Re- dem-|pto- ri|
 (f2 e2 d3) d | ^c2 c4 c2 | d2 e2 A2 c2 | (c3 _B AB c2- | c_B/A/ B2) A2 c2 | A2 d2 (^c2 e2- | %13
w: ob\- * * vi-|am: et vic-|to- ri tri- um-|phan\- * * * *|* * * * ti di-|gna dant ob\- *|
 e2 d4 ^c2 | d2 d3 d G2 | d4 B2 e2- | e2 e2 (cB AG | F2) G2 d3 d | G4 G2 c2 | B2 c4 A2- | %20
w: * se- qui-|a: Fí- li- um|De- i o\-|* re gen\- * * *|* tes prae- di-|cant, et in|lau- dem Chri\-|
 A2 ^G2 z4 | A6 A2 | c4 A4- | A2 A2 f3 f | e6 z2 ||[M:3/4] ^c2 d2 e2 | f4 f2 | %27
w: * sti|vo- ces|to- nant|* per nu- bi-|la:|Ho- san- na|in ex-|
[M:3/4][K:treble-8] e2 e2 c2 | d2 B4 | A2 A2 c2 | A6 | F6 | D2 F2 D2 | A4 d2 | ^c2 A2 D2 | %35
w: cel- sis, in|ex- cel-|sis, in ex-|cel-|sis,|ho- san- na|in ex-|cel- sis, ho-|
 A2 A2 ^c2 | d6 | d2 d2 d2 | d4 ^c2 | d2 f2 e2 | d2 f2) d2 | (d2 ^c4) | !fermata!d6 |] %43
w: san- na, ho-|san-|na in ex-|cel- sis,|ho- san- na|in * ex-|cel\- *|sis.|
V:4
 D,4 A,2 D,2 | G,4 D,4 | z2 D,2 G,3 G, | G,2 C,2 (F,4- | F,2 E,2 D,4) | C,4 C,2 A,,2 | %6
w: Oc- cur- runt|tur- bae|cum flo- ri-|bus et pal\-||mis Re- dem-|
[M:4/4] (E,3 D, C,2) A,,2 | (D,2 ^C,2 D,3) D, | A,,2 A,4 A,2 | D,2 A,,2 D,2 C,2 | %10
w: pto\- * * ri|ob\- * * vi-|am: et vic-|to- ri tri- um-|
 (F,2 E,2 F,2 A,2 | _B,4) F,4 | F,2 D,2 A,2 A,2 | (F,3 E,/D,/ A,3) A, | D,4 G,3 G, | D,2 G,4 E,2 | %16
w: phan\- * * *|* ti|di- gna dant ob-|se\- * * * qui-|a: Fi- li-|um De- i|
 A,2 ^G,2 A,2 A,,2 | (D,2 C,2 D,3) D, | C,4 C,2 A,,2 | E,2 E,2 F,4 | E,4 A,4- | A,2 A,2 C4 | %22
w: o- re gen- tes|prae\- * * di-|cant, et in|lau- dem Chri-|sti vo\-|* ces to-|
 A,2 A,2 F,3 E, | D,2 ^C,2 D,3 D, | A,,6 z2 ||[M:3/4] A,,2 D,2 C,2 | F,4 A,2 |[M:3/4] C2 C,2 F,2 | %28
w: nant per nu- bi-|la, per nu- bi-|la:|Ho- san- na|in ex-|cel- sis, in|
 D,2 E,4 | A,,6 | z2 A,2 C2 | A,6 | F,6 | D,2 F,2 D,2 | A,4 D2 | ^C2 A,2 A,,2 | D,2 D,2 ^F,2 | %37
w: ex- cel-|sis,|in ex-|cel-|sis,|ho- san- na|in ex-|cel- sis, ho-|san- na, ho-|
 G,2 G,,2 D,2 | F,2 A,4 | D,2 D2 A,2 | _B,2 F,2 G,2 | A,4 A,,2 | !fermata!D,6 |] %43
w: san- na in|ex- cel-|sis, in ex-|cel- sis, in|ex- cel-|sis.|

